X: 1
T: Sicilian Dance, The
T: Royal Albert
T: Prince of Wales Contre Dance
M: 6/8
L: 1/8
S: John Burk’s music manuscript book (1821)
N: ”By Mr. Fisher”
Z: AK/Fiddler’s Companion
K: F
C \
| FGF AGF | c2c c2B | ABa c2B | A2G2 F2C \
| FGF AGF | c2c c2f | efe dc=B | c3 c2 :|
|: f \
| g2c b2a | gfe f2 d/f/ | g2c b2a | afe f3 \
| dbb caa | Bgg f2 A\BGG c2F | F3 F2 :|
|: z \
| A3 GAG | F2F FAc | c2 BdB | A2A Ace \
| f2e e2d | d2c c2B | ABc cBA | B3 G2 ||
c \
| f2 fd=B | Ad=B c3 | b3 bge | fge f3 \
| f2f d2c | d2c B2A | GAG c2E | F3 F2 :|
